icons/star.svg

<svg xmlns="http://www.w3.org/2000/svg" width="96" height="96"><path d="M53.5 11.7L63 31l21.3 3.1c2.8.1 5.1 2.2 5.6 4.9.2.9 0 1.8-.4 2.6l-1.2 2.3-16 15.7L76 81.2l.1.9c.1 1.4-.4 2.9-1.3 4.1-1 1.1-2.4 1.8-3.8 2-.5 0-1 0-1.5-.2l-1.9-.5-19.2-10.1-.4-.1-.4.1-19.2 10.1-1.9.5c-.5.2-1 .2-1.5.2-1.4-.2-2.8-.9-3.8-2-.9-1.2-1.4-2.7-1.3-4.1l.1-.9 3.7-21.6-16-15.7-1.2-2.3c-.4-.8-.6-1.7-.4-2.6.5-2.7 2.8-4.8 5.6-4.9L33 31l9.5-19.3c.9-2.3 3.1-3.8 5.5-3.9 2.4.1 4.6 1.6 5.5 3.9zm13.9 66.6l-16.2-8.5-3.2-.7-3.2.7-16.2 8.5 3.1-17.7V60v-.3c.1-2.1-.7-4.2-2.2-5.7-.1 0-.1-.1-.1-.1L16.7 41.5l17.6-2.6c2.5-.3 4.7-1.9 5.8-4.2l7.9-16 7.9 16c1.1 2.3 3.3 3.9 5.8 4.2l17.6 2.6-12.7 12.4s0 .1-.1.1c-1.5 1.5-2.3 3.6-2.2 5.7V60.6l3.1 17.7z" fill-rule="evenodd" fill="#454545"/></svg>

<?xml version="1.0" standalone="no"?><!-- Generator: Gravit.io --><svg xmlns="http://www.w3.org/2000/svg" xmlns:xlink="http://www.w3.org/1999/xlink" width="96" height="96"><path d=" M 53.5 11.7 L 63 31 L 84.3 34.1 C 87.1 34.2 89.4 36.3 89.9 39 C 90.1 39.9 89.9 40.8 89.5 41.6 L 88.3 43.9 L 72.3 59.6 L 72.3 59.6 L 76 81.2 L 76.1 82.1 C 76.2 83.5 75.7 85 74.8 86.2 C 73.8 87.3 72.4 88 71 88.2 C 70.5 88.2 70 88.2 69.5 88 L 67.6 87.5 L 48.4 77.4 L 48 77.3 L 47.6 77.4 L 28.4 87.5 L 26.5 88 C 26 88.2 25.5 88.2 25 88.2 C 23.6 88 22.2 87.3 21.2 86.2 C 20.3 85 19.8 83.5 19.9 82.1 L 20 81.2 L 23.7 59.6 L 23.7 59.6 L 7.7 43.9 L 6.5 41.6 C 6.1 40.8 5.9 39.9 6.1 39 C 6.6 36.3 8.9 34.2 11.7 34.1 L 33 31 L 42.5 11.7 C 43.4 9.4 45.6 7.9 48 7.8 C 50.4 7.9 52.6 9.4 53.5 11.7 Z  M 67.4 78.3 L 51.2 69.8 L 48 69.1 L 44.8 69.8 L 28.6 78.3 L 31.7 60.6 L 31.7 60 C 31.7 59.9 31.7 59.8 31.7 59.7 C 31.8 57.6 31 55.5 29.5 54 C 29.4 54 29.4 53.9 29.4 53.9 L 16.7 41.5 L 34.3 38.9 C 36.8 38.6 39 37 40.1 34.7 L 48 18.7 L 55.9 34.7 C 57 37 59.2 38.6 61.7 38.9 L 79.3 41.5 L 66.6 53.9 C 66.6 53.9 66.6 54 66.5 54 C 65 55.5 64.2 57.6 64.3 59.7 C 64.3 59.8 64.3 59.9 64.3 60 L 64.3 60.6 L 67.4 78.3 Z " fill-rule="evenodd" fill="#454545" stroke="none"/><mask id="_mask_sA2ZKVX9yB8eEt0h7C6SPvx1LRtY43tg"><path d=" M 53.5 11.7 L 63 31 L 84.3 34.1 C 87.1 34.2 89.4 36.3 89.9 39 C 90.1 39.9 89.9 40.8 89.5 41.6 L 88.3 43.9 L 72.3 59.6 L 72.3 59.6 L 76 81.2 L 76.1 82.1 C 76.2 83.5 75.7 85 74.8 86.2 C 73.8 87.3 72.4 88 71 88.2 C 70.5 88.2 70 88.2 69.5 88 L 67.6 87.5 L 48.4 77.4 L 48 77.3 L 47.6 77.4 L 28.4 87.5 L 26.5 88 C 26 88.2 25.5 88.2 25 88.2 C 23.6 88 22.2 87.3 21.2 86.2 C 20.3 85 19.8 83.5 19.9 82.1 L 20 81.2 L 23.7 59.6 L 23.7 59.6 L 7.7 43.9 L 6.5 41.6 C 6.1 40.8 5.9 39.9 6.1 39 C 6.6 36.3 8.9 34.2 11.7 34.1 L 33 31 L 42.5 11.7 C 43.4 9.4 45.6 7.9 48 7.8 C 50.4 7.9 52.6 9.4 53.5 11.7 Z  M 67.4 78.3 L 51.2 69.8 L 48 69.1 L 44.8 69.8 L 28.6 78.3 L 31.7 60.6 L 31.7 60 C 31.7 59.9 31.7 59.8 31.7 59.7 C 31.8 57.6 31 55.5 29.5 54 C 29.4 54 29.4 53.9 29.4 53.9 L 16.7 41.5 L 34.3 38.9 C 36.8 38.6 39 37 40.1 34.7 L 48 18.7 L 55.9 34.7 C 57 37 59.2 38.6 61.7 38.9 L 79.3 41.5 L 66.6 53.9 C 66.6 53.9 66.6 54 66.5 54 C 65 55.5 64.2 57.6 64.3 59.7 C 64.3 59.8 64.3 59.9 64.3 60 L 64.3 60.6 L 67.4 78.3 Z " fill-rule="evenodd" fill="white" stroke="none"/></mask><path d=" M 53.5 11.7 L 63 31 L 84.3 34.1 C 87.1 34.2 89.4 36.3 89.9 39 C 90.1 39.9 89.9 40.8 89.5 41.6 L 88.3 43.9 L 72.3 59.6 L 72.3 59.6 L 76 81.2 L 76.1 82.1 C 76.2 83.5 75.7 85 74.8 86.2 C 73.8 87.3 72.4 88 71 88.2 C 70.5 88.2 70 88.2 69.5 88 L 67.6 87.5 L 48.4 77.4 L 48 77.3 L 47.6 77.4 L 28.4 87.5 L 26.5 88 C 26 88.2 25.5 88.2 25 88.2 C 23.6 88 22.2 87.3 21.2 86.2 C 20.3 85 19.8 83.5 19.9 82.1 L 20 81.2 L 23.7 59.6 L 23.7 59.6 L 7.7 43.9 L 6.5 41.6 C 6.1 40.8 5.9 39.9 6.1 39 C 6.6 36.3 8.9 34.2 11.7 34.1 L 33 31 L 42.5 11.7 C 43.4 9.4 45.6 7.9 48 7.8 C 50.4 7.9 52.6 9.4 53.5 11.7 Z  M 67.4 78.3 L 51.2 69.8 L 48 69.1 L 44.8 69.8 L 28.6 78.3 L 31.7 60.6 L 31.7 60 C 31.7 59.9 31.7 59.8 31.7 59.7 C 31.8 57.6 31 55.5 29.5 54 C 29.4 54 29.4 53.9 29.4 53.9 L 16.7 41.5 L 34.3 38.9 C 36.8 38.6 39 37 40.1 34.7 L 48 18.7 L 55.9 34.7 C 57 37 59.2 38.6 61.7 38.9 L 79.3 41.5 L 66.6 53.9 C 66.6 53.9 66.6 54 66.5 54 C 65 55.5 64.2 57.6 64.3 59.7 C 64.3 59.8 64.3 59.9 64.3 60 L 64.3 60.6 L 67.4 78.3 Z " fill-rule="evenodd" fill="none" stroke="none" stroke-width="16" mask="url(#_mask_sA2ZKVX9yB8eEt0h7C6SPvx1LRtY43tg)"/></svg>
